files/3/64x64/places/folder-copy.svg

<?xml version="1.0" encoding="UTF-8" standalone="no"?>
<svg
   xmlns:dc="http://purl.org/dc/elements/1.1/"
   xmlns:cc="http://creativecommons.org/ns#"
   xmlns:rdf="http://www.w3.org/1999/02/22-rdf-syntax-ns#"
   xmlns:svg="http://www.w3.org/2000/svg"
   xmlns="http://www.w3.org/2000/svg"
   xmlns:sodipodi="http://sodipodi.sourceforge.net/DTD/sodipodi-0.dtd"
   xmlns:inkscape="http://www.inkscape.org/namespaces/inkscape"
   width="64"
   viewBox="0 0 64 64"
   height="64"
   id="svg2"
   version="1.1"
   inkscape:version="0.48.5 r10040"
   sodipodi:docname="folder-copy.svg">
  <metadata
     id="metadata22">
    <rdf:RDF>
      <cc:Work
         rdf:about="">
        <dc:format>image/svg+xml</dc:format>
        <dc:type
           rdf:resource="http://purl.org/dc/dcmitype/StillImage" />
      </cc:Work>
    </rdf:RDF>
  </metadata>
  <defs
     id="defs20" />
  <sodipodi:namedview
     pagecolor="#ffffff"
     bordercolor="#666666"
     borderopacity="1"
     objecttolerance="10"
     gridtolerance="10"
     guidetolerance="10"
     inkscape:pageopacity="0"
     inkscape:pageshadow="2"
     inkscape:window-width="1280"
     inkscape:window-height="998"
     id="namedview18"
     showgrid="true"
     inkscape:zoom="8"
     inkscape:cx="33.948595"
     inkscape:cy="39.20196"
     inkscape:window-x="0"
     inkscape:window-y="0"
     inkscape:window-maximized="1"
     inkscape:current-layer="svg2">
    <inkscape:grid
       type="xygrid"
       id="grid2998"
       empspacing="5"
       visible="true"
       enabled="true"
       snapvisiblegridlinesonly="true" />
  </sodipodi:namedview>
  <rect
     style="fill:#ea9036;fill-opacity:1;stroke:none"
     id="rect3757-5-1"
     width="33.999943"
     height="13.999979"
     x="1.9999968"
     y="9.9999962" />
  <path
     style="fill:#ea9036;fill-opacity:1;stroke:none"
     d="M 6.0259661,9.999997 C 6.0259661,8.999998 6.0259661,8 7.8394212,8 l 6.3470958,0 c 1.813457,0 1.813457,0.999998 1.813457,1.999997 z"
     id="path3759-0-4"
     inkscape:connector-curvature="0"
     sodipodi:nodetypes="ccccc" />
  <path
     style="fill:#95989f;fill-opacity:1;stroke:none"
     d="m 3.9999935,13.99999 29.9999505,0 0,5.99999 -29.9999505,0 z"
     id="path3765-59-1"
     inkscape:connector-curvature="0" />
  <rect
     y="11.999992"
     x="7.9999871"
     height="17.999971"
     width="23.999962"
     id="rect3763-6-8"
     style="fill:#d8d8da;fill-opacity:1;stroke:none" />
  <rect
     style="fill:#f9f9f9;fill-opacity:1;stroke:none"
     id="rect3761-9-2"
     width="23.999962"
     height="17.999971"
     x="5.99999"
     y="15.999987" />
  <path
     style="fill:#f2bb64;fill-opacity:1;stroke:none"
     d="m 0,17.999984 37.999938,0 -2.714284,20.000047 -32.5713744,0 z"
     id="path2987-0-3"
     inkscape:connector-curvature="0"
     sodipodi:nodetypes="ccccc" />
  <path
     style="fill:#000000;fill-opacity:0.10196078;stroke:none"
     d="m 7.8124872,8.000082 c -1.813455,0 -1.812497,0.999998 -1.812497,1.999997 l -3.9999935,0 0,7.999986 -1.9999967,0 2.6874956,19.999968 32.6249464,0 1.062498,-7.999987 5.624991,0 c 0,-0.999999 9.6e-4,-1.999997 -1.812497,-1.999997 l -3.562494,0 1.374998,-9.999984 -1.999997,0 0,-7.999986 -19.999967,0 c 0,-0.999999 9.6e-4,-1.999997 -1.812497,-1.999997 l -6.3749898,0 z"
     id="rect3077"
     inkscape:connector-curvature="0" />
  <rect
     style="fill:#ea9036;fill-opacity:1;stroke:none"
     id="rect3757-5"
     width="33.999943"
     height="13.999979"
     x="27.999954"
     y="29.999966" />
  <path
     style="fill:#ea9036;fill-opacity:1;stroke:none"
     d="m 32.025924,29.999966 c 0,-0.999999 0,-1.999997 1.813455,-1.999997 l 6.347095,0 c 1.813457,0 1.813457,0.999998 1.813457,1.999997 z"
     id="path3759-0"
     inkscape:connector-curvature="0"
     sodipodi:nodetypes="ccccc" />
  <path
     style="fill:#95989f;fill-opacity:1;stroke:none"
     d="m 29.999951,33.999959 29.999951,0 0,5.99999 -29.999951,0 z"
     id="path3765-59"
     inkscape:connector-curvature="0" />
  <rect
     y="31.999962"
     x="33.999943"
     height="17.999971"
     width="23.999962"
     id="rect3763-6"
     style="fill:#d8d8da;fill-opacity:1;stroke:none" />
  <rect
     style="fill:#f9f9f9;fill-opacity:1;stroke:none"
     id="rect3761-9"
     width="23.999962"
     height="17.999971"
     x="31.999949"
     y="35.999954" />
  <path
     style="fill:#f2bb64;fill-opacity:1;stroke:none"
     d="m 25.999957,37.999953 37.999938,0 L 61.285612,58 28.714237,58 z"
     id="path2987-0"
     inkscape:connector-curvature="0"
     sodipodi:nodetypes="ccccc" />
</svg>

<svg xmlns="http://www.w3.org/2000/svg" xmlns:xlink="http://www.w3.org/1999/xlink" width="64px" height="64px" viewBox="0 0 64 64" version="1.1">
<g id="surface1">
<path style=" stroke:none;fill-rule:nonzero;fill:rgb(91.764706%,56.470588%,21.176471%);fill-opacity:1;" d="M 2 10 L 36 10 L 36 24 L 2 24 Z M 2 10 "/>
<path style=" stroke:none;fill-rule:nonzero;fill:rgb(91.764706%,56.470588%,21.176471%);fill-opacity:1;" d="M 6.027344 10 C 6.027344 9 6.027344 8 7.839844 8 L 14.1875 8 C 16 8 16 9 16 10 Z M 6.027344 10 "/>
<path style=" stroke:none;fill-rule:nonzero;fill:rgb(58.431373%,59.607843%,62.352941%);fill-opacity:1;" d="M 4 14 L 34 14 L 34 20 L 4 20 Z M 4 14 "/>
<path style=" stroke:none;fill-rule:nonzero;fill:rgb(84.705882%,84.705882%,85.490196%);fill-opacity:1;" d="M 8 12 L 32 12 L 32 30 L 8 30 Z M 8 12 "/>
<path style=" stroke:none;fill-rule:nonzero;fill:rgb(97.647059%,97.647059%,97.647059%);fill-opacity:1;" d="M 6 16 L 30 16 L 30 34 L 6 34 Z M 6 16 "/>
<path style=" stroke:none;fill-rule:nonzero;fill:rgb(94.901961%,73.333333%,39.215686%);fill-opacity:1;" d="M 0 18 L 38 18 L 35.285156 38 L 2.714844 38 Z M 0 18 "/>
<path style=" stroke:none;fill-rule:nonzero;fill:rgb(0%,0%,0%);fill-opacity:0.101961;" d="M 7.8125 8 C 6 8 6 9 6 10 L 2 10 L 2 18 L 0 18 L 2.6875 38 L 35.3125 38 L 36.375 30 L 42 30 C 42 29 42 28 40.1875 28 L 36.625 28 L 38 18 L 36 18 L 36 10 L 16 10 C 16 9 16 8 14.1875 8 Z M 7.8125 8 "/>
<path style=" stroke:none;fill-rule:nonzero;fill:rgb(91.764706%,56.470588%,21.176471%);fill-opacity:1;" d="M 28 30 L 62 30 L 62 44 L 28 44 Z M 28 30 "/>
<path style=" stroke:none;fill-rule:nonzero;fill:rgb(91.764706%,56.470588%,21.176471%);fill-opacity:1;" d="M 32.027344 30 C 32.027344 29 32.027344 28 33.839844 28 L 40.1875 28 C 42 28 42 29 42 30 Z M 32.027344 30 "/>
<path style=" stroke:none;fill-rule:nonzero;fill:rgb(58.431373%,59.607843%,62.352941%);fill-opacity:1;" d="M 30 34 L 60 34 L 60 40 L 30 40 Z M 30 34 "/>
<path style=" stroke:none;fill-rule:nonzero;fill:rgb(84.705882%,84.705882%,85.490196%);fill-opacity:1;" d="M 34 32 L 58 32 L 58 50 L 34 50 Z M 34 32 "/>
<path style=" stroke:none;fill-rule:nonzero;fill:rgb(97.647059%,97.647059%,97.647059%);fill-opacity:1;" d="M 32 36 L 56 36 L 56 54 L 32 54 Z M 32 36 "/>
<path style=" stroke:none;fill-rule:nonzero;fill:rgb(94.901961%,73.333333%,39.215686%);fill-opacity:1;" d="M 26 38 L 64 38 L 61.285156 58 L 28.714844 58 Z M 26 38 "/>
</g>
</svg>
